packages/foundations/assets/icons/functional/images/maps/station_24_filled.svg

<svg xmlns="http://www.w3.org/2000/svg" width="20" height="20" fill="none"><path fill="#1A1C1F" fill-rule="evenodd" d="M9.15 2.054c-.907.11-1.672.32-2.452.675a7.93 7.93 0 0 0-3.186 2.604 7.95 7.95 0 0 0-1.496 5.034 8 8 0 0 0 2.333 5.284c1.184 1.184 2.694 1.955 4.407 2.252.609.105 1.899.105 2.494 0 1.709-.303 3.231-1.079 4.383-2.236a7.7 7.7 0 0 0 1.517-2.117 7.4 7.4 0 0 0 .617-1.664c.172-.68.211-1.034.209-1.936-.002-.812-.035-1.114-.192-1.771-.206-.859-.648-1.886-1.111-2.579a8.03 8.03 0 0 0-5.095-3.432c-.687-.139-1.79-.19-2.428-.114M7.845 6.088c.193.098.373.269.47.447l.096.177.016 1.244.016 1.244h3.113l.019-1.25c.021-1.397.021-1.394.274-1.655.172-.176.328-.241.621-.255.414-.021.68.133.877.507l.086.163v6.572l-.09.179c-.29.573-.989.71-1.446.283-.306-.286-.3-.252-.322-1.794l-.019-1.35H8.444l-.02 1.351c-.019 1.293-.023 1.358-.091 1.5-.146.302-.529.549-.852.549-.32 0-.666-.226-.824-.539l-.09-.179V6.731l.087-.174c.142-.284.342-.452.629-.528.139-.036.435-.005.562.059"/></svg>

<svg width="20" height="20" viewBox="0 0 20 20" fill="none" xmlns="http://www.w3.org/2000/svg"><path d="M9.150 2.054 C 8.243 2.164,7.478 2.374,6.698 2.729 C 5.404 3.319,4.329 4.198,3.512 5.333 C 2.454 6.805,1.937 8.542,2.016 10.367 C 2.101 12.337,2.943 14.245,4.349 15.651 C 5.533 16.835,7.043 17.606,8.756 17.903 C 9.365 18.008,10.655 18.008,11.250 17.903 C 12.959 17.600,14.481 16.824,15.633 15.667 C 16.284 15.014,16.745 14.370,17.150 13.550 C 17.454 12.935,17.601 12.536,17.767 11.886 C 17.939 11.206,17.978 10.852,17.976 9.950 C 17.974 9.138,17.941 8.836,17.784 8.179 C 17.578 7.320,17.136 6.293,16.673 5.600 C 15.479 3.814,13.663 2.591,11.578 2.168 C 10.891 2.029,9.788 1.978,9.150 2.054 M7.845 6.088 C 8.038 6.186,8.218 6.357,8.315 6.535 L 8.411 6.712 8.427 7.956 L 8.443 9.200 9.999 9.200 L 11.556 9.200 11.575 7.950 C 11.596 6.553,11.596 6.556,11.849 6.295 C 12.021 6.119,12.177 6.054,12.470 6.040 C 12.884 6.019,13.150 6.173,13.347 6.547 L 13.433 6.710 13.433 9.996 L 13.433 13.282 13.343 13.461 C 13.053 14.034,12.354 14.171,11.897 13.744 C 11.591 13.458,11.597 13.492,11.575 11.950 L 11.556 10.600 10.000 10.600 L 8.444 10.600 8.424 11.951 C 8.405 13.244,8.401 13.309,8.333 13.451 C 8.187 13.753,7.804 14.000,7.481 14.000 C 7.161 14.000,6.815 13.774,6.657 13.461 L 6.567 13.282 6.567 10.007 L 6.567 6.731 6.654 6.557 C 6.796 6.273,6.996 6.105,7.283 6.029 C 7.422 5.993,7.718 6.024,7.845 6.088 " fill="#1A1C1F" stroke="none" fill-rule="evenodd"></path></svg>
